icons/svg/24x24/external link/outline.svg

<svg width="24" height="24" fill="none" xmlns="http://www.w3.org/2000/svg">
  <path fill-rule="evenodd" clip-rule="evenodd" d="M14 3l2.793 2.793-6.5 6.5a.999.999 0 101.414 1.414l6.5-6.5L21 10V3h-7zm5 9h2v4c0 2.757-2.243 5-5 5H8c-2.757 0-5-2.243-5-5V8c0-2.757 2.243-5 5-5h4v2H8C6.346 5 5 6.346 5 8v8c0 1.654 1.346 3 3 3h8c1.654 0 3-1.346 3-3v-4z" fill="#000"/>
</svg>

<svg xmlns="http://www.w3.org/2000/svg" width="24" height="24" viewBox="0 0 24 24">
  <path fill-rule="evenodd" d="M14,3 L16.793,5.793 L10.293,12.293 C9.902,12.684 9.902,13.316 10.293,13.707 C10.488,13.902 10.744,14 11,14 C11.256,14 11.512,13.902 11.707,13.707 L18.207,7.207 L21,10 L21,3 L14,3 Z M19,12 L21,12 L21,16 C21,18.757 18.757,21 16,21 L8,21 C5.243,21 3,18.757 3,16 L3,8 C3,5.243 5.243,3 8,3 L12,3 L12,5 L8,5 C6.346,5 5,6.346 5,8 L5,16 C5,17.654 6.346,19 8,19 L16,19 C17.654,19 19,17.654 19,16 L19,12 Z"/>
</svg>
